X:68
T:Diamond Mine
R:reel
C:Paul S. Cranford
O:Cape Breton Island
S:http://www.cranfordpub.com
D:currently unrecorded
Z:psc
N:
H:                                                        copyrights Cranford Publications, SOCAN
L:1/8
Q:244
M:C
K:GDor
d<Gc>B A<FG>A|d/c/B/A/ c>B A>F A/B/c|d<Gc>B A<FG>A|d/c/B/A/ d>D D<F G2:|
||g<db>a g>fdF d/c/B/A/ c>df<a|g<dc>B A<F G2|A>F d/c/B/A/  D<F G2|
g<db>a g>fdF d/c/B/A/ c>df<a|b/a/g/f/ a>f g>dcF d/c/B/A/  D<F G2|]
